X:378
T:B378-  Princess Royal
S:Malcolm Douglas <malcolm.douglas@blueyonder.co.uk> tradtunes 2005-7-7
B:Playford 'The Dancing Master', c.1662, #26
Q:1/4=120
L:1/4
M:C|
K:G dorian
B/A/|Ggg3/2^f/|g3g/a/|bff3/2e/|dBBc/d/|\
(_e/d/) (c/B/)B3/2A/|A3::a|a3/2d/ d3/4f/4 e3/4g/4|f2e3/2f/|\
d3/2=e/c3/2B/|B3(B/A/)|Gcc3/2=B/|c3(f/e/)|\
db^f3/2g/|g3:|]
